X: 181
T: Salazu renmin bashenfan
%%abc-version 2.0
%%abcx-abcm2ps-target-version 5.9.1 (29 Sep 2008)
%%abc-creator hum2abc beta
%%abcx-conversion-date 2013/10/02 07:44:28
%%abc-edited-by Helmut Schaffrath
%%humdrum-veritas 2599175880
%%humdrum-veritas-data 2780925379
%%continueall 1
%%barnumbers 0
L: 1/8
M: 2/4
K: Eb
c c c e [I:setbarnb 1]| 
c B B/ G/ B/ c/ | 
B B/ G/ F F | 
F B B/ G/ B/ c/ | 
c> c c B | 
B G B/ G/ B/ c/ | 
B B/ G/ F F | 
F2z2 | 
C C/ C/ C E | 
F F F/ E/ F/ G/ | 
G G G B | 
G G G/ F/ G/ B/ | 
F F F B | 
c B B/ G/ B/ c/ | 
B B/ G/ F F | 
F4 |]  



